!!!COM: Bach, Johann Sebastian
!!!CDT: 1685/3//-1750/7/28/
!!!OTL@@DE: Vater unser im Himmelreich
!!!OTL@EN: Our Father in Heaven
!!!AGN: 4-Part Chorale
!!!SCT: BH 110
!!!SCT: BWV 102
**harm	**root	**kern	**kern	**kern	**kern
!	!	!bass	!tenor	!alto	!soprno
*	*Iorgan	*Iorgan	*Iorgan	*Iorgan	*Iorgan
*M4/4	*M4/4	*M4/4	*M4/4	*M4/4	*M4/4
*met(c)	*met(c)	*met(c)	*met(c)	*met(c)	*met(c)
*MM60	*MM60	*MM60	*MM60	*MM60	*MM60
*k[]	*k[]	*k[]	*k[]	*k[]	*k[]
*a:	*a:	*a:	*a:	*a:	*a:
i	4CC	4AA	4A	4c	4e
=1	=1	=1	=1	=1	=1
Vb	4GG	4GG#	4E	4B	4e
i	4CC	4AA	4E	4A	4c
ivb	4FF	4F	4A	8A	4d
.	.	.	.	8B	.
ib	8CC	8C	8A	8c	8e
iiob	8DD	8D	8F	8B	8d
=2	=2	=2	=2	=2	=2
ic	4CC	4E	4E	4A	4c
V	4GG	4EE	8E	4G#	4B
.	.	.	8D	.	.
i;	4CC;	4AA;	4C;	4E;	4A;
i	4CC	4A	4A	4c	4e
=3	=3	=3	=3	=3	=3
iiib	4EE-	8E	4G	4c	4e
.	.	8F	.	.	.
-VII	4BB-	4G	4G	8B	4d
.	.	.	.	8c	.
-VIIb	4BB-	4BB	4G	4d	4g
III	4EE-	4C	4G	8c	8e
.	.	.	.	8B	8d
=4	=4	=4	=4	=4	=4
VI	4AA-	4F	4A	8A	4c
.	.	.	.	8G#	.
ivb	4FF	4FF	4F	8A	4d
.	.	.	.	8B	.
V;	4GG;	4EE;	4BB;	4G#;	4e;
i	4CC	4AA	4A	4c	8e
.	.	.	.	.	8f#
=5	=5	=5	=5	=5	=5
v	4GG	4E	4Gy	4B	4g
iv7	4FF	4D	4F	8c	8a
.	.	.	.	8d	8b
ib	4CC	4C	4E	4e	4cc
ii	8DD	8D	8F#	4d	4b
V7	8GG	8E	8G#	.	.
=6	=6	=6	=6	=6	=6
VI	4AA-	4Fy	4A	8c	4a
.	.	.	.	8d	.
V	4GG	4E	4B	4e	4g#
i;	4CC;	4AA;	4c;	4e;	4a;
IV	4FF	4D	4F#	4d	4a
!!linebreak: 2
=7	=7	=7	=7	=7	=7
-VII	4BB-	4G	4G	4d	4b
viib/V	4FF#	4F#	4A	4d#	4a
V	4GG	4E	4B	4e	4g
#viD7	8AA	8AA	8c	8e	4f#
V/V	8DD	8BB	8B	8d#	.
=8	=8	=8	=8	=8	=8
ib	4CC	4C	8B	4e	4e
.	.	.	8A	.	.
V7/V	4DD	4BB	8A	4d#	4f#
.	.	.	8G#	.	.
V;	4GG;	4EE;	4G#;	4B;	4e;
IV	4FF	8D	4F#	4d	4a
.	.	8C	.	.	.
=9	=9	=9	=9	=9	=9
-VIIb	4BB-	4BB	4G	4d	4g
#viob	4AA	4AA	4A	4c	4f#
-VII	4BB-	4GG	4D	4B	8g
.	.	.	.	.	8f
i	4CC	8AA	4C	8c	4e
.	.	8GG	.	8B	.
=10	=10	=10	=10	=10	=10
VI7	4AA-	4FF	4C	4A	4e
-VII	4BB-	4GG	8G	4B	4d
.	.	.	8F	.	.
III;	4EE-;	4C;	4E;	4G;	4c;
Ib	4CC	4C#	4A	4A	4e
=11	=11	=11	=11	=11	=11
iv	4FF	4D	4A	4d	4f
V7	4GG	4E	4G#	8c	8e
.	.	.	.	8B	8d
VI	4AA-	8F	8A	4A	4c
.	.	8E	8G	.	.
iv	4FF	4D	4F	8B	4d
.	.	.	.	8A	.
=12	=12	=12	=12	=12	=12
ic	4CC	4E	4E	8G#	4c
.	.	.	.	8A	.
V	4GG	4EE	8E	8A	4B
.	.	.	8D	8G#	.
I;	4CC;	4AA;	4C#;	4E;	4A;
==	==	==	==	==	==
*-	*-	*-	*-	*-	*-
!!chor2scor: -l 2 -s 0.6 -o %b.pmx
!!!YEC: Copyright 1994, David Huron
!!!YEC: Changes/Additions 2001 by Craig Stuart Sapp
!!!YEN: United States of America
!!!SMA: 371 Bach Chorales, edited by Ludwig Erk, C.F. Peters
!!!PDT: 1850, 1865
!!!ONB: Harmony and Root analysis done manually
